!!!COM:	Johannes Ockeghem
!!!CDT:	~1425-1497/02/06
!!!OPR:	Missa Ecce ancilla Domini
!!!ONM:	2
!!!OTL:	Gloria
!!!AGN:	Mass; Gloria
!!!SCT:	Ock1006b
!!!SCA:	Ock1006b
!!!voices:	4
!!!voices-OPR:	4
**kern	**kern	**kern	**kern
*staff4	*staff3	*staff2	*staff1
*Ivox	*Ivox	*Ivox	*Ivox
*I"Bassus	*I"Tenor	*I"Contratenor	*I"Discantus
*I'B	*I'T	*I'Ct	*I'D
*>[A,B]	*>[A,B]	*>[A,B]	*>[A,B]
*>A	*>A	*>A	*>A
*clefF4	*clefGv2	*clefGv2	*clefG2
*k[]	*k[]	*k[]	*k[]
*M3/1	*M3/1	*M3/1	*M3/1
*met(O)	*met(O)	*met(O)	*met(O)
!!section: Et in terra
!!!OMD: Et in terra
=1-	=1-	=1-	=1-
0.r	0.r	1.G	0g
.	.	2A/	.
.	.	1B	1g
=2	=2	=2	=2
0.r	0.r	0.c	1.g
.	.	.	1a
.	.	.	4g/
.	.	.	4f/
=3	=3	=3	=3
0.r	0.r	1.c	1e
.	.	.	2.g/
.	.	1d	.
.	.	.	4f/
.	.	.	1d
.	.	4c\	.
.	.	4B\	.
=4	=4	=4	=4
0.r	0.r	1A	1c
.	.	2.c\	1r
.	.	4B\	.
.	.	1G	1g
=5	=5	=5	=5
0.r	0.r	1F	1a
.	.	1r	2b\
.	.	.	2.cc\
.	.	1c	.
.	.	.	4b\
.	.	.	2g/
=6	=6	=6	=6
0.r	0.r	1d	2f/
.	.	.	2a/
.	.	2B\	2d/
.	.	2c\	1e
.	.	2.A/	.
.	.	.	2c/
.	.	4F/	.
=7	=7	=7	=7
0.r	0.r	2G/	2B/
.	.	1C	2c/
.	.	.	2G/
.	.	1G	2B/
.	.	.	1A
.	.	2F#i/	.
=8	=8	=8	=8
0.r	0.r	0.G	1G
.	.	.	1r
.	.	.	1d
=9	=9	=9	=9
0.r	0.r	1r	1e
.	.	1d	2d/
.	.	.	2.B/
.	.	2e\	.
.	.	.	4c/
.	.	[2d\	2d/
=10	=10	=10	=10
0.r	0.r	2d\]	2G/
.	.	2B\	2d/
.	.	2c\	2e/
.	.	2d\	2d/
.	.	2G/	2.g/
.	.	[2d\	.
.	.	.	4f/
=11	=11	=11	=11
0.r	0.r	4d\]	2.a/
.	.	4c\	.
.	.	2d\	.
.	.	.	4g/
.	.	2B\	2g/
.	.	2c\	2e/
.	.	1A	1f
=12	=12	=12	=12
0.r	0.r	2G/	1g
.	.	2E/	.
.	.	0F	1.a
.	.	.	4g/
.	.	.	4f/
=13	=13	=13	=13
0.r	0.r	2.G/	2e/
.	.	.	1d
.	.	4A/	.
.	.	2B\	.
.	.	2.c\	2g/
.	.	.	2f/
.	.	4A/	.
.	.	2B\	2g/
=14	=14	=14	=14
0.r	0.r	2A/	2a/
.	.	1d	2f/
.	.	.	1e
.	.	2c#i\	.
.	.	2d\	1d
.	.	2G/	.
=15	=15	=15	=15
1r	0.r	2A/	0.r
.	.	2F/	.
2r	.	1E	.
2C/	.	.	.
2D\	.	1D	.
2BB/	.	.	.
=16	=16	=16	=16
1AA	0.r	2r	0.r
.	.	2C/	.
1GG	.	2D/	.
.	.	2E/	.
1D	.	1F	.
=17	=17	=17	=17
2E\	0.r	2G/	0.r
4D\	.	2.A/	.
2F\	.	.	.
4G\	.	4B\	.
2E\	.	2c\	.
2D\	.	1d	.
2F\	.	.	.
=18	=18	=18	=18
2G\	0.r	2B\	0.r
2A\	.	4c\	.
.	.	4d\	.
2.G\	.	2e\	.
.	.	4d\	.
4D\	.	2d\	.
2G\	.	.	.
.	.	4B\	.
2F#i\	.	2A/	.
=19	=19	=19	=19
2G\	0.r	2G/	0.r
2r	.	4F/	.
.	.	2A/	.
2D\	.	.	.
.	.	4F/	.
2C/	.	2E/	.
4BB/	.	2D/	.
2D\	.	.	.
.	.	2r	.
4BB/	.	.	.
=20	=20	=20	=20
2AA/	0.r	2C/	0.r
2GG/	.	2D/	.
2C/	.	2E/	.
2D\	.	2.F/	.
2.F\	.	.	.
.	.	4G/	.
.	.	2A/	.
4E\	.	.	.
=21	=21	=21	=21
2D\	0.r	2B\	0.r
2C/	.	2.c\	.
1F	.	.	.
.	.	4B\	.
.	.	2A/	.
2E\	.	2G/	.
2G\	.	2B\	.
=22	=22	=22	=22
2C/	0.r	2c\	0.r
2BB/	.	2d\	.
2C/	.	2G/	.
2AA/	.	2F/	.
1GG	.	2G/	.
.	.	2E/	.
=23	=23	=23	=23
2D\	0.r	2D/	0.r
4C/	.	2.A/	.
4BB/	.	.	.
2GG/	.	.	.
.	.	4G/	.
2BB/	.	1G	.
1AA	.	.	.
.	.	2F#i/	.
=24	=24	=24	=24
0.GG	[0.d	0.G	1r
.	.	.	1r
.	.	.	1g
=25	=25	=25	=25
0.r	0d]	0D	1f
.	.	.	1.a
.	1c	1F	.
.	.	.	2g/
=26	=26	=26	=26
[0.G	1B	2.G/	1e
.	.	4A/	.
.	0d	0B	1d
.	.	.	1g
=27	=27	=27	=27
1G]	0.d	1G	1b
0F	.	1D	1.a
.	.	1A	.
.	.	.	2g/
=28	=28	=28	=28
1E	0e	2r	1g
.	.	1B	.
0G	.	.	1r
.	.	2G/	.
.	[1d	2.G/	1b
.	.	4F/	.
=29	=29	=29	=29
1r	1d]	1D	2.a/
.	.	.	4g/
0A	0c	2r	2.a/
.	.	1F	.
.	.	.	4g/
.	.	.	1e
.	.	2G/	.
=30	=30	=30	=30
0.D	1d	2A/	2d/
.	.	1B-	2f/
.	0d	.	2g/
.	.	4A/	1a
.	.	4G/	.
.	.	1F	.
.	.	.	2f/
=31	=31	=31	=31
2C/	0.G	2G/	2e/
2.BB/	.	2d\	2d/
.	.	2c\	2e/
4AA/	.	.	.
1BB	.	2B\	1d
.	.	1d	.
2GG/	.	.	2B/
=32	=32	=32	=32
[0.D	0.F	2r	0A
.	.	1d	.
.	.	4c\	.
.	.	4B\	.
.	.	1A	1r
=33	=33	=33	=33
1D]	0.A	1.d	1a
0F	.	.	2g/
.	.	2c\	1f
.	.	2c\	.
.	.	2A/	4e/
.	.	.	4d/
=34	=34	=34	=34
0C	0.c	1G	2.e/
.	.	.	4f/
.	.	1r	2g/
.	.	.	1a
1F	.	1A	.
.	.	.	2f/
=35	=35	=35	=35
2E\	0.r	2G/	2g/
1F	.	1A	2f/
.	.	.	2d/
2G\	.	2B\	2.e/
1E	.	1G	.
.	.	.	4c/
.	.	.	2B/
=36	=36	=36	=36
1AA	0.c	2E/	1A
.	.	1F	.
1r	.	.	1a
.	.	1C	.
1r	.	.	2g/
.	.	2F/	2a/
=37	=37	=37	=37
0.r	2B\	2G/	4g/
.	.	.	4f/
.	1c	1A	2e/
.	.	.	2a/
.	2d\	2D/	1a
.	1B	1E	.
.	.	.	2g#i/
=38	=38	=38	=38
1r	0.A	1F	1a
1r	.	1D	1.f
1D	.	2.F/	.
.	.	.	4e/
.	.	4G/	4d/
=39	=39	=39	=39
0.F	1r	1.A	1c
.	1r	.	2d/
.	.	2B\	2c/
.	1A	1c	1f
=40	=40	=40	=40
0C	0c	2A/	1e
.	.	1G	.
.	.	.	2r
.	.	2A/	2e/
2r	[1G	2B\	2d/
[2C/	.	[2c\	[2e/
=41	=41	=41	=41
2C/]	1G]	4c\]	4e/]
.	.	4A/	4c/
2BB/	.	2B\	2d/
1C	2r	2G/	2e/
.	1G	2.c\	2c/
1D	.	.	2r
.	.	4A/	.
.	2F/	2B\	2f/
=42	=42	=42	=42
1.C	1G	0c	2e/
.	.	.	1g
.	1A	.	.
2AA/	.	.	2f/
2BB/	1G	2r	2.g/
[2C/	.	[2c\	.
.	.	.	4f/
=43	=43	=43	=43
4C/]	2r	2c\]	4e/
4BB/	.	.	4d/
2GG/	2.G/	2B\	1d
1AA	.	1A	.
.	4E/	.	.
.	2F/	.	2c/
1GG	2r	1B	2d/
.	[2G/	.	[2e/
=44	=44	=44	=44
1r	4G/]	1A	2e/]
.	4F/	.	.
.	2D/	.	2.d/
2r	1E	2.G/	.
.	.	.	4B/
2C/	.	.	2c/
.	.	4E/	.
2BB/	1D	2F/	2d/
2GG/	.	[2G/	2B/
=45	=45	=45	=45
1D	1r	2G/]	1A
.	.	2F/	.
1GG	1D	2.G/	1B
.	.	4A/	.
2GG/	2.G/	2B\	1r
[2C/	.	[2c\	.
.	4A/	.	.
=46	=46	=46	=46
4C/]	2B\	4c\]	0.r
4D\	.	4B\	.
2E\	2.c\	2G/	.
2.F\	.	2F/	.
.	4B\	.	.
.	4A/	1A	.
4E\	4G/	.	.
4D\	2F/	.	.
4C/	.	.	.
2BB/	2G/	2D/	.
=47	=47	=47	=47
2C/	1A	2E/	0.r
1D	.	1F	.
.	2B\	.	.
2E\	1G	1G	.
1C	.	.	.
.	[2c\	2r	.
=48	=48	=48	=48
2.F\	4c\]	2r	0.r
.	4B\	.	.
.	2c\	1A	.
4E\	.	.	.
2F\	1d	.	.
2G\	.	2G/	.
1D	2B\	1F	.
.	[2A/	.	.
=49	=49	=49	=49
1F	2A/]	1A	0.r
.	1c	.	.
2.C/	.	2G/	.
.	2.G/	1E	.
4D\	.	.	.
2E\	.	.	.
.	8F/L	.	.
.	8G/J	.	.
2D\	2A/	2F/	.
=50	=50	=50	=50
2GG/	4G/	2.G/	0.r
.	2E/	.	.
1BB	.	.	.
.	4D/	4F/	.
.	2G/	2D/	.
2C/	2E/	2E/	.
1AA	2.F/	1C	.
.	4E/	.	.
=51	=51	=51	=51
0.GG	1G	0D	1d
.	1r	.	1.g
.	1D	1G	.
.	.	.	2a/
=52	=52	=52	=52
0.r	1.G	2r	1b
.	.	1E	.
.	.	.	1cc
.	2A/	2F/	.
.	1B	2.G/	2b\
.	.	.	[2g/
.	.	4F/	.
=53	=53	=53	=53
0.r	1B	1D	4g/]
.	.	.	4a/
.	.	.	2f/
.	1.c	2.C/	2e/
.	.	.	2f/
.	.	4D/	.
.	.	2E/	2g/
.	2A/	[2F/	[2a/
=54	=54	=54	=54
0.r	1A	4F/]	4a/]
.	.	4E/	4g/
.	.	2C/	2e/
.	2F/	2D/	2d/
.	2G/	2E/	1g
.	1A	1D	.
.	.	.	2f#i/
=55	=55	=55	=55
1r	0.G	1d	2.g/
.	.	.	4f/
1r	.	2r	0d
.	.	1B	.
1GG	.	.	.
.	.	4A/	.
.	.	4B\	.
=56	=56	=56	=56
1.C	0.r	1.c	1.e
2D\	.	2B\	2d/
1E	.	1G	2c/
.	.	.	2B/
=57	=57	=57	=57
1E	0.r	1G	1B
1.F	.	1.A	2r
.	.	.	2d/
.	.	.	2c/
2D\	.	[2F/	[2f/
=58	=58	=58	=58
1D	0.r	2F/]	4f/]
.	.	.	4e/
.	.	2A/	1d
2BB/	.	2G/	.
2C/	.	1c	2e/
1D	.	.	2f/
.	.	2B\	2d/
=59	=59	=59	=59
0C	0.r	0c	1.e
.	.	.	2c/
1GG	.	1B	1d
=60	=60	=60	=60
0.C	1r	1A	0.e
.	1r	1G	.
.	1G	1c	.
=61	=61	=61	=61
1BB	0G	1d	0.r
0C	.	0e	.
.	1c	.	.
=62	=62	=62	=62
1D	1B	1d	1r
0E	0c	2r	0e
.	.	1G	.
.	.	4F/	.
.	.	4G/	.
=63	=63	=63	=63
0D	0.d	1A	1f
.	.	2B\	2g/
.	.	2.A/	1a
1BB	.	.	.
.	.	4F/	.
.	.	2G/	2b\
=64	=64	=64	=64
1AA	1c	1A	2cc\
.	.	.	2a/
0GG	0B	1.D	2b\
.	.	.	1g
.	.	2E/	4f/
.	.	.	4g/
=65	=65	=65	=65
1D	0A	1F	1a
2C/	.	2E/	2r
2D\	.	2D/	2f/
2C/	[1c	1E	2g/
[2AA/	.	.	[2a/
=66	=66	=66	=66
2AA/]	2c\]	2e\	2a/]
2BB/	2B\	2d\	4g/
.	.	.	4f/
2C/	0G	2c\	2e/
2GG/	.	2B\	2d/
2C/	.	1c	2r
2E\	.	.	2g/
=67	=67	=67	=67
2.D\	1.A	0d	2.f/
4E\	.	.	4g/
2F\	.	.	2a/
1G	1.G	.	2b-i\
.	.	2B\	2.g/
2C/	.	2c\	.
.	.	.	4e/
=68	=68	=68	=68
2BB/	1G	2d\	2d/
2C/	.	2c\	2e/
1D	2.F/	2A/	2f/
.	.	2B\	2d/
.	4E/	.	.
2.C/	[1G	2c\	2e/
.	.	[2C/	[2g/
4BB/	.	.	.
=69	=69	=69	=69
4AA/	1G]	2C/]	4g/]
4GG/	.	.	4a/
1GG	.	2D/	2b\
.	1A	2E/	1cc
2FF/	.	2F/	.
1GG	1G	2D/	1b
.	.	[2d\	.
=70	=70	=70	=70
1D	2r	2d\]	2a/
.	2F/	1B	1b
1E	1G	.	.
.	.	2c\	4a/
.	.	.	4g/
2D\	2A/	1d	2f/
2GG/	2B\	.	2g/
=71	=71	=71	=71
2C/	2c\	2.G/	2e/
2.BB/	2d\	.	1d
.	.	4F/	.
.	1G	2D/	.
4C/	.	.	.
2E\	.	1C	2.g/
1D	1A	.	.
.	.	.	4e/
.	.	2BB/	2f#i/
=72	=72	=72	=72
0.GGl	0.Gl	0.Dl	0.gl
!!LO:LB:i:g=z
=73||	=73||	=73||	=73||
*>B	*>B	*>B	*>B
*clefF4	*clefGv2	*clefGv2	*clefG2
*k[]	*k[]	*k[]	*k[]
*M2/1	*M2/1	*M2/1	*M2/1
*met(C|)	*met(C|)	*met(C|)	*met(C|)
!!section: Qui tollis
!!!OMD: Qui tollis
0r	0r	0G	0d
=74	=74	=74	=74
0r	0r	1G	1d
.	.	1G	1d
=75	=75	=75	=75
0r	0r	1C	1e
.	.	1C	[1e
=76	=76	=76	=76
0r	0r	1.G	2e/]
.	.	.	2d/
.	.	.	1d
.	.	2A/	.
=77	=77	=77	=77
0r	0r	2B\	1.g
.	.	4c\	.
.	.	4d\	.
.	.	2e\	.
.	.	4d\	4f/
.	.	4c\	4e/
=78	=78	=78	=78
0r	0r	2B\	2d/
.	.	1c	2c/
.	.	.	1d
.	.	2B\	.
=79	=79	=79	=79
0r	0r	0c	1r
.	.	.	1c
=80	=80	=80	=80
0r	0r	1r	1d
.	.	1c	1e
=81	=81	=81	=81
0r	0r	1d	1f
.	.	1e	1g
=82	=82	=82	=82
0r	0r	1f	1a
.	.	2e\	2r
.	.	2c\	2a/
=83	=83	=83	=83
0r	0r	2e\	2g/
.	.	2f\	1cc
.	.	[1d	.
.	.	.	2b\
=84	=84	=84	=84
0r	0r	1d]	2b\
.	.	.	2a/
.	.	[1c	2.cc\
.	.	.	4b\
=85	=85	=85	=85
0r	0r	1c]	2g/
.	.	.	2.a/
.	.	1F	.
.	.	.	4g/
.	.	.	2a/
=86	=86	=86	=86
0r	0r	2G/	2g/
.	.	1A	2e/
.	.	.	2f/
.	.	2B\	2g/
=87	=87	=87	=87
0r	0r	1c	1e
.	.	1A	2r
.	.	.	[2e/
=88	=88	=88	=88
0r	0r	1.c	2e/]
.	.	.	4d/
.	.	.	4c/
.	.	.	2e/
.	.	2B\	2d/
=89	=89	=89	=89
0r	0r	1G	2e/
.	.	.	1g
.	.	1A	.
.	.	.	2f#i/
=90	=90	=90	=90
0r	0r	1G	[0g
.	.	1G	.
=91	=91	=91	=91
0r	0r	1c	0g]
.	.	1c	.
=92	=92	=92	=92
0r	0r	1B	1r
.	.	1B	1G
=93	=93	=93	=93
0r	0r	1A	1c
.	.	1A	1c
=94	=94	=94	=94
0r	0r	1E	1B
.	.	1G	1B
=95	=95	=95	=95
0r	0r	0F	1A
.	.	.	1A
=96	=96	=96	=96
0r	0r	1.E	1G
.	.	.	1c
.	.	[2F/	.
=97	=97	=97	=97
0r	0r	2F/]	1d
.	.	4E/	.
.	.	4D/	.
.	.	1C	1e
=98	=98	=98	=98
[0GG	0r	[0G	1r
.	.	.	[1d
=99	=99	=99	=99
1GG]	0r	1G]	2d/]
.	.	.	2d/
1GG	.	1G	1d
=100	=100	=100	=100
1GG	0r	1G	1B
1C	.	1A	1c
=101	=101	=101	=101
1C	0r	1A	1c
1GG	.	1G	1B
=102	=102	=102	=102
1GG	0r	1E	1B
[1D	.	[1F	1A
=103	=103	=103	=103
2D\]	0r	2F/]	1.d
2E\	.	2G/	.
1F	.	1A	.
.	.	.	2c/
=104	=104	=104	=104
1D	0r	1B	1d
2C/	.	1c	1e
2AA/	.	.	.
=105	=105	=105	=105
2GG/	0r	2B\	2r
1C	.	2.G/	1e
.	.	4F/	.
2BB/	.	2D/	2f/
=106	=106	=106	=106
2C/	0r	1C	2e/
2E\	.	.	2c/
2D\	.	2r	2.B/
2G\	.	2E/	.
.	.	.	4G/
=107	=107	=107	=107
2r	0r	2.D/	2A/
2GG/	.	.	2G/
.	.	4E/	.
2AA/	.	2F/	2c/
2GG/	.	[2G/	2B/
=108	=108	=108	=108
2C/	0r	4G/]	2e/
.	.	4A/	.
2BB/	.	2B\	2d/
2D\	.	2A/	2f/
2C/	.	2c\	2e/
=109	=109	=109	=109
2.E\	0r	2B\	2g/
.	.	2G/	2.c/
4D\	.	.	.
2F\	.	2A/	.
.	.	.	4d/
2E\	.	2G/	[2e/
=110	=110	=110	=110
2G\	0r	1E	4e/]
.	.	.	4d/
2.C/	.	.	4c/
.	.	.	4B/
.	.	2F/	2A/
4D\	.	.	.
[2E\	.	[2G/	2G/
=111	=111	=111	=111
4E\]	0r	2G/]	2.c/
4D\	.	.	.
4C/	.	1A	.
4BB/	.	.	4d/
2AA/	.	.	4e/
.	.	.	4f/
2GG/	.	2B\	2g/
=112	=112	=112	=112
2.C/	0r	2c\	2r
.	.	1A	1c
4D\	.	.	.
4E\	.	.	.
4F\	.	.	.
2G\	.	[2G/	2B/
=113	=113	=113	=113
2C/	0r	2G/]	2e/
2BB/	.	2.G/	2d/
2E\	.	.	2G/
.	.	4E/	.
2D\	.	2F/	2A/
=114	=114	=114	=114
2GG/	0r	2G/	2G/
2AA/	.	2C/	2.c/
1GG	.	1D	.
.	.	.	4B/
.	.	.	4B/
.	.	.	4A/
=115	=115	=115	=115
0G	0r	0C	0c
=116	=116	=116	=116
0E	0r	1G	0r
.	.	[1G	.
=117	=117	=117	=117
0F	0r	2G/]	0r
.	.	4F/	.
.	.	4E/	.
.	.	1D	.
=118	=118	=118	=118
1G	0G	1C	0r
1GG	.	1D	.
=119	=119	=119	=119
1C	0E	1C	0r
[1C	.	[1AA	.
=120	=120	=120	=120
2C/]	0F	2AA/]	0r
2BB/	.	2BB/	.
1AA	.	1C	.
=121	=121	=121	=121
0GG	0G	1.D	0r
.	.	2E/	.
=122	=122	=122	=122
1D	1.A	2.F/	0r
.	.	4G/	.
2C/	.	2A/	.
[2BB-/	[2G/	[2B-i\	.
=123	=123	=123	=123
4BB-/]	2G/]	2B-iy\]	0r
4GG/	.	.	.
2AA/	2F/	2A/	.
1GG	1G	2.B-i\	.
.	.	4G/	.
=124	=124	=124	=124
1r	0D	0A	0r
1D	.	.	.
=125	=125	=125	=125
1E	1r	0r	0r
1F	1D	.	.
=126	=126	=126	=126
1G	1E	0r	0r
1A	1F	.	.
=127	=127	=127	=127
2G\	1G	0r	0r
1E	.	.	.
.	1A	.	.
2F\	.	.	.
=128	=128	=128	=128
2G\	2G/	0r	0r
1C	1E	.	.
2D\	2F/	.	.
=129	=129	=129	=129
2C/	2G/	0r	0e
2.AA/	2A/	.	.
.	2G/	.	.
4BB/	.	.	.
2C/	[2c\	.	.
=130	=130	=130	=130
2E\	2c\]	0r	2e/
2F\	2A/	.	2d/
1D	2B\	.	1f
.	2A/	.	.
=131	=131	=131	=131
0C	0c	2G/	1e
.	.	2A/	.
.	.	2G/	[1g
.	.	[2c\	.
=132	=132	=132	=132
0r	0G	2c\]	2g/]
.	.	2B\	4f/
.	.	.	4e/
.	.	2B\	1d
.	.	2A/	.
=133	=133	=133	=133
0C	0r	0c	1c
.	.	.	1g
=134	=134	=134	=134
1F	0r	1A	1a
1E	.	1B	[1g
=135	=135	=135	=135
0C	0c	1.c	1g]
.	.	.	1cc
.	.	2A/	.
=136	=136	=136	=136
0r	0e	1G	1b
.	.	1c	1g
=137	=137	=137	=137
1r	0d	0r	0a
1F	.	.	.
=138	=138	=138	=138
1E	0e	1B	0g
1C	.	1c	.
=139	=139	=139	=139
1D	0r	1A	1r
1BB	.	1d	1f
=140	=140	=140	=140
0C	0r	1r	1e
.	.	1c	1c
=141	=141	=141	=141
0G	0r	1B	1d
.	.	1G	1B
=142	=142	=142	=142
1F	0r	1A	1c
1E	.	1G	1g
=143	=143	=143	=143
1C	[0e	[0c	0a
1AA	.	.	.
=144	=144	=144	=144
0C	0e]	0c]	1g
.	.	.	1cc
=145	=145	=145	=145
0r	0d	[0G	2b\
.	.	.	1b
.	.	.	2a/
=146	=146	=146	=146
1.C	1c	0G]	1.cc
.	[1e	.	.
2D\	.	.	4b\
.	.	.	4a/
=147	=147	=147	=147
1E	1e]	0c	1g
1F	1A	.	1a
=148	=148	=148	=148
0D	0B	0d	2g/
.	.	.	1f
.	.	.	4e/
.	.	.	4d/
=149	=149	=149	=149
1r	0c	1A	1e
[1A	.	[1c	1r
=150	=150	=150	=150
1A]	0r	1c]	1e
1G	.	1B	[1e
=151	=151	=151	=151
1E	0r	1G	1e]
1F	.	1A	1c
=152	=152	=152	=152
0D	0r	0F	1d
.	.	.	1f
=153	=153	=153	=153
1C	1r	1G	1.e
1AA	[1e	1r	.
.	.	.	4d/
.	.	.	4c/
=154	=154	=154	=154
0GG	1e]	0G	1.B
.	1d	.	.
.	.	.	2c/
=155	=155	=155	=155
1D	1B	1F	1d
1C	1c	1G	1e
=156	=156	=156	=156
0F	0A	1r	1c
.	.	1A	1d
=157	=157	=157	=157
0E	0r	2B\	1e
.	.	1c	.
.	.	.	1g
.	.	2B\	.
=158	=158	=158	=158
1D	0r	1.d	1.f
[1F	.	.	.
.	.	2c\	4e/
.	.	.	4d/
=159	=159	=159	=159
1F]	[0c	1A	1c
1E	.	1G	[1e
=160	=160	=160	=160
0C	0c]	1.E	1e]
.	.	.	[1g
.	.	2F/	.
=161	=161	=161	=161
0r	0B	0G	2g/]
.	.	.	4f/
.	.	.	4e/
.	.	.	1d
=162	=162	=162	=162
0r	0A	0D	0f
=163	=163	=163	=163
0F	1r	0r	0a
.	[1c	.	.
=164	=164	=164	=164
1.F	1c]	0r	1a
.	1c	.	1a
2F\	.	.	.
=165	=165	=165	=165
1G	0B	0r	1g
[1E	.	.	[1g
=166	=166	=166	=166
2E\]	0G	0r	2g/]
4D\	.	.	4f/
4C/	.	.	4e/
1BB	.	.	1d
=167	=167	=167	=167
1.AA	0A	0r	1f
.	.	.	[1e
2BB/	.	.	.
=168	=168	=168	=168
1C	1G	0r	2e/]
.	.	.	2c/
1E	[1G	.	[1c
=169	=169	=169	=169
0D	1G]	0r	1c]
.	1F	.	1B
=170	=170	=170	=170
0C	1G	0r	[0c
.	2A/	.	.
.	[2c\	.	.
=171	=171	=171	=171
1E	2c\]	1G	0c]
.	2B\	.	.
1F	1A	1A	.
=172	=172	=172	=172
2G\	1G	0B	1r
2E\	.	.	.
1D	1d	.	1f
=173	=173	=173	=173
1C	2e\	1c	2g/
.	2c\	.	2e/
1G	2d\	1B	1d
.	2B\	.	.
=174	=174	=174	=174
1A	1c	2r	1c
.	.	2A/	.
2G\	2B\	2B\	1g
2E\	[2c\	2G/	.
=175	=175	=175	=175
1F	2c\]	2r	1a
.	2d\	2D/	.
1G	1B	[1d	2g/
.	.	.	2e/
=176	=176	=176	=176
2.D\	1A	2d\]	2.f/
.	.	1d	.
4C/	.	.	4g/
2BB/	2G/	.	4a/
.	.	.	4b\
2AA/	2A/	2e\	[2cc\
=177	=177	=177	=177
1FF	2.c\	1.f	2cc\]
.	.	.	2a/
.	4B\	.	.
1GG	2.G/	.	1b
.	.	[2d\	.
.	4F/	.	.
=178	=178	=178	=178
2BB/	2D/	2d\]	2g/
2AA/	2C/	2e\	2.a/
2C/	2E/	2c\	.
.	.	.	4g/
2D\	2F/	2A/	4f/
.	.	.	4e/
=179	=179	=179	=179
2.BB/	2G/	2B\	2.d/
.	1G	2G/	.
4GG/	.	.	4e/
1D	.	2r	4d/
.	.	.	8c/L
.	.	.	8B/J
.	2F/	[2D/	2A/
=180	=180	=180	=180
2GG/	2G/	2D/]	2G/
2AA/	2F/	2C/	2r
2GG/	2G/	2D/	2d/
2C/	2A/	2E/	2c/
=181	=181	=181	=181
2BB/	2G/	2D/	2d/
2C/	2c\	2G/	2e/
2D\	2B\	2F/	2d/
2C/	2c\	2G/	2g/
=182	=182	=182	=182
2F\	2d\	2A/	2f/
2E\	2.c\	2G/	2g/
2F\	.	2c\	2a/
.	4B\	.	.
2G\	2G/	2B\	2g/
=183	=183	=183	=183
1F	1A	2c\	2.cc\
.	.	2d\	.
.	.	.	4b\
2E\	2B\	2e\	2g/
[2C/	[2c\	[2e\	[2a/
=184	=184	=184	=184
4C/]	4c\]	4e\]	2a/]
4D\	4B\	4d\	.
2E\	2G/	2c\	1g
1D	1A	1d	.
.	.	.	2f#i/
=185	=185	=185	=185
0GGl	0Gl	0dl	0gl
==	==	==	==
*-	*-	*-	*-
!!!RDF**kern: l=long note in original notation
!!!RDF**kern: i=editorial accidental
!!!RDF**kern: V=start of tuplet marker
!!!RDF**kern: Z=end of tuplet marker
!!!ENC:	Will Watson 12/09/2012
!!!END:	2012/09/17/
!!!EED:	Jesse Rodin
!!!EEV:	2012/09/17/
!!!ONB:	Translated from MusicXML and edited on 2012/09/17/ by Craig Sapp
!!muse2ps: T^@{OPR}^u^@{ONM}{. }@{OTL}^C^@{COM}^i2I150v85,85,85,100Q16
